src/assets/navigation/user.svg

<svg height="24" viewBox="0 0 24 24" width="24" xmlns="http://www.w3.org/2000/svg"><path d="m0 0h24v24h-24z" fill="none"/><path d="m12 5.9a2.1 2.1 0 1 1 -2.1 2.1 2.1 2.1 0 0 1 2.1-2.1m0 9c2.97 0 6.1 1.46 6.1 2.1v1.1h-12.2v-1.1c0-.64 3.13-2.1 6.1-2.1m0-10.9a4 4 0 1 0 4 4 4 4 0 0 0 -4-4zm0 9c-2.67 0-8 1.34-8 4v3h16v-3c0-2.66-5.33-4-8-4z" fill="#3574ed"/></svg>

<svg xmlns="http://www.w3.org/2000/svg" width="24" height="24" viewBox="0 0 24 24"><g transform="translate(-290 -202)"><rect width="24" height="24" transform="translate(290 202)" fill="none"/><path d="M12,5.9A2.1,2.1,0,1,1,9.9,8,2.1,2.1,0,0,1,12,5.9m0,9c2.97,0,6.1,1.46,6.1,2.1v1.1H5.9V17c0-.64,3.13-2.1,6.1-2.1M12,4a4,4,0,1,0,4,4A4,4,0,0,0,12,4Zm0,9c-2.67,0-8,1.34-8,4v3H20V17C20,14.34,14.67,13,12,13Z" transform="translate(290 202)" fill="#3574ed"/></g></svg>
